X: 3
T: Miller's Reel
N: from Betsy Hooper, arr. T. Traub 5-4-06
B: NEFR (New England Fiddler's Repertoire)
M: 4/4
L: 1/8
R: Reel
K: A
E2 |\
"A"A,2CE "D"D2FA | "E"E2GB "A"A2cA | "E"BEcE dEcE | BEcB AFEC | "A"A,2CE "D"D2FA |
"E"E2GB "A"A2ce | "D"fefg "Bm"agaf | "E"ecBcA2 :||: (3efg | "A"a2ga fece | "E"{g}b2bg agfe |
gebe gbeg | "B7"fe^df "E"e2fg | "A"a2ga fece | "D"fgag "A"fece | "D"fdge "Bm"afed | "E"cABc "A"A2 :|
